src/assets/svg/b-blog.svg

<svg xmlns="http://www.w3.org/2000/svg" width="20" height="20" viewBox="0 0 20 20">
  <path d="M4.56991391,0 C7.07578256,0 7.22173436,4.87820817 8.00123307,5.17925383 C8.69414095,4.97245008 10.0510932,4.73534798 10.7715939,4.73534798 C14.0936308,4.73534798 16.3001531,6.51097138 18.4044728,8.74124593 L18.414392,8.75032725 C18.7190465,9.16133968 18.9748476,9.53456574 19.1817953,9.87000539 C19.7346234,10.7660793 20.4291276,13.0273675 19.6557422,14.8126508 C19.2122285,15.8364582 18.2819886,16.8008331 17.4489915,17.5271023 L17.5578073,17.4615297 C13.6263672,19.8797596 7.72766424,20.6076243 3.17211695,19.4839436 C2.46668337,19.4735506 0.908775137,18.4113473 0.619594577,17.7914645 C-0.172066777,16.0949338 -0.0751286632,14.4542437 0.198621683,12.5997037 C0.497241941,10.5765852 0.906233705,8.54536368 1.26639335,6.53052435 C1.54050673,4.99728765 2.58068548,0 4.56991391,0 Z M13.1447242,9.43858593 C11.7413846,9.43858593 4.33709549,15.4849766 11.9321486,15.4849766 C17.9859318,15.4849766 14.5407017,9.43858593 13.1447242,9.43858593 Z" transform="translate(6 6)"/>
</svg>

<?xml version="1.0" encoding="UTF-8" standalone="no"?>
<svg/>
  <path
     id="path863"
     d="M 4.5699139,0 C 7.0757826,0 7.2217344,4.8782082 8.0012331,5.1792538 8.694141,4.9724501 10.051093,4.735348 10.771594,4.735348 c 3.322037,0 5.528559,1.7756234 7.632879,4.0058979 l 0.0099,0.00908 c 0.304654,0.4110124 0.560456,0.7842384 0.767403,1.1196781 0.552828,0.896074 1.247333,3.157363 0.473947,4.942646 -0.443514,1.023807 -1.373753,1.988182 -2.20675,2.714451 l 0.108815,-0.06557 c -3.93144,2.41823 -9.8301428,3.146094 -14.38569,2.022414 -0.7054336,-0.01039 -2.26334186,-1.072597 -2.55252242,-1.69248 -0.79166136,-1.69653 -0.69472324,-3.33722 -0.4209729,-5.19176 C 0.49724194,10.576585 0.90623371,8.5453637 1.2663933,6.5305244 1.5405067,4.9972876 2.5806855,0 4.5699139,0 Z m 8.5748101,9.4385859 c -1.403339,0 -8.8076285,6.0463911 -1.212575,6.0463911 6.053783,0 2.608553,-6.0463911 1.212575,-6.0463911 z" />
</svg>
